X: 499
T: THE HEART BOWED DOWN
B: O'Neill's 499
Z: 1999 by John Chambers <jc@trillian.mit.edu>
N: "Slow"
N: Collected by "(Balfe)"
N: First phrase has 10 bars.
N: Typo: Bar 10 needs D6 rather than D4.
M: C
L: 1/8
K:G
D2 \
|B2.B2 .B2.B2|3BAD A4 d2|d2B2 dc 3AEF|G4 z2D2|
|B2.B2 .B2.B2|3BAD A4 d2|d2B2 c2dcBA|A2A2 B2cd \
|dF "rall."BA 3ABC HFE|D4 z2||
||A2.A2 .A2.A2|3AGB, D4 G2|F2F2 G2cB|HA6 D2|
|B2.B2 .B2.B2|3BAD A4 d2|d2B2 d2cA|B6 G2|
|B3B c3A|d4 He2GA|B3A Hc3B|G4 z2|]
